dhis-2/dhis-support/dhis-support-system/src/main/resources/SVGs/clinical_fe_positive.svg

<svg width="48" height="48" viewBox="0 0 48 48" fill="none" xmlns="http://www.w3.org/2000/svg">
<path fill-rule="evenodd" clip-rule="evenodd" d="M24.0288 4.97266C22.6288 4.97416 21.4768 6.07414 21.4098 7.47262H19.3118C18.7228 7.47262 18.2498 7.94782 18.2498 8.53701V8.77531H11.8609C10.8319 8.77531 10.002 9.6031 10.002 10.6329V41.1675C10.002 42.1975 10.8319 43.0265 11.8609 43.0265H36.1386C37.1676 43.0265 37.9956 42.1975 37.9956 41.1675V15.9358C37.9896 16.1048 37.9486 16.2758 37.8726 16.4388L30.1907 32.9526C30.0357 33.2866 29.7587 33.5236 29.4377 33.6346C29.4307 33.6386 29.4297 33.6466 29.4237 33.6536L26.0638 37.2805C26.0498 37.2955 26.0287 37.3026 26.0117 37.3176C26.0098 37.3185 26.0088 37.3205 26.0078 37.3215C26.0058 37.3235 26.0018 37.3226 25.9998 37.3236C25.9528 37.3616 25.9038 37.3885 25.8498 37.4035C25.8488 37.4045 25.8468 37.4055 25.8458 37.4055C25.8438 37.4065 25.8418 37.4076 25.8398 37.4076C25.7838 37.4216 25.7278 37.4306 25.6718 37.4236C25.6678 37.4216 25.6648 37.4236 25.6598 37.4236C25.6528 37.4236 25.6448 37.4165 25.6388 37.4155C25.5928 37.4085 25.5498 37.3975 25.5078 37.3745C25.4828 37.3635 25.4628 37.3446 25.4408 37.3296C25.4268 37.3186 25.4088 37.3135 25.3958 37.3026C25.3888 37.2946 25.3858 37.2846 25.3788 37.2765C25.3468 37.2436 25.3228 37.2075 25.3008 37.1675C25.2968 37.1566 25.2888 37.1476 25.2848 37.1366C25.2628 37.0836 25.2528 37.0316 25.2498 36.9726C25.2478 36.9466 25.2418 36.9206 25.2438 36.8946L25.8118 31.9936C25.8138 31.9746 25.8258 31.9596 25.8298 31.9406C25.7118 31.6256 25.7148 31.2656 25.8688 30.9356L33.5487 14.4198C33.7767 13.9278 34.2706 13.6468 34.7786 13.6658C34.9486 13.6718 35.1186 13.7108 35.2826 13.7868L37.2396 14.7068C37.7316 14.9358 38.0146 15.4278 37.9956 15.9358V10.6329C37.9956 9.6031 37.1676 8.77531 36.1386 8.77531H29.7477V8.53701C29.7477 7.94782 29.2747 7.47262 28.6857 7.47262H26.6477C26.5817 6.07414 25.4288 4.97416 24.0288 4.97266ZM23.9858 6.42374C24.6338 6.42444 25.1588 6.94993 25.1578 7.59762C25.1588 8.24532 24.6338 8.77071 23.9858 8.77141C23.3378 8.77181 22.8118 8.24602 22.8118 7.59762C22.8118 6.94913 23.3378 6.42334 23.9858 6.42374ZM19.6558 8.18942H21.4588C21.6548 9.02451 22.2408 9.6805 22.9938 9.99989H22.9788C23.0109 10.0129 23.0432 10.0252 23.0758 10.0369C23.1108 10.0509 23.1458 10.0639 23.1818 10.0759C23.294 10.1136 23.4086 10.1437 23.5248 10.1659C23.5558 10.1719 23.5878 10.1749 23.6188 10.1799C23.7448 10.2008 23.8721 10.2125 23.9998 10.2149H24.0118C24.1431 10.213 24.2742 10.2014 24.4038 10.1799C24.4348 10.1749 24.4658 10.1719 24.4958 10.1659C24.6068 10.1443 24.7164 10.1156 24.8238 10.0799C24.8708 10.0649 24.9158 10.0469 24.9608 10.0289C24.9876 10.0197 25.0143 10.01 25.0408 9.99989H25.0288C25.7818 9.6805 26.3687 9.02451 26.5637 8.18942H28.3107C28.6647 8.18942 28.9507 8.47511 28.9507 8.83001V9.99989V11.0509H19.0158V9.99989V8.83001C19.0158 8.47511 19.3008 8.18942 19.6558 8.18942ZM17.1579 13.3829C17.5179 13.3829 17.8049 13.6728 17.8049 14.0328V15.7518H19.5228C19.8828 15.7518 20.1738 16.0418 20.1738 16.4018C20.1738 16.7618 19.8828 17.0508 19.5228 17.0508H17.8049V18.7698C17.8049 19.1298 17.5159 19.4198 17.1559 19.4198C16.7959 19.4198 16.5059 19.1298 16.5059 18.7698V17.0508H14.7869C14.4269 17.0508 14.1369 16.7628 14.1369 16.4018C14.1369 16.0418 14.4269 15.7518 14.7869 15.7518H16.5079V14.0328C16.5079 13.6728 16.7979 13.3829 17.1579 13.3829ZM35.0956 14.4668C34.6246 14.4498 34.1696 14.7108 33.9587 15.1658L33.3537 16.4688L36.4336 17.8998L37.0386 16.5978C37.3206 15.9908 37.0586 15.2758 36.4526 14.9938L35.5616 14.5798C35.4106 14.5088 35.2516 14.4738 35.0956 14.4668ZM33.0977 17.0158L32.7907 17.6778L35.8686 19.1108L36.1776 18.4468L33.0977 17.0158ZM32.5367 18.2248L30.4487 22.7107L26.8547 30.4386L26.5567 31.0816C26.4397 31.3316 26.5467 31.6256 26.7967 31.7416L27.4407 32.0406L28.3317 32.4546L28.9767 32.7536C29.2257 32.8696 29.5197 32.7626 29.6367 32.5136L29.9357 31.8706L33.5287 24.1447L35.6146 19.6558L32.5367 18.2248ZM13.9389 23.9997H28.2847L27.6147 25.3747H13.9389V23.9997ZM13.9389 27.9997H26.3397L25.6698 29.3746H13.9389V27.9997ZM13.9389 31.9996H24.3928L23.7248 33.3746H13.9389V31.9996ZM26.4897 32.3866L25.9588 36.3766L28.6127 33.3906L26.4897 32.3866ZM13.9389 35.9996H22.4468L21.7788 37.3745H13.9389V35.9996Z" fill="#333333"/>
</svg>

<?xml version="1.0" encoding="UTF-8" standalone="no"?>
<!-- Created with Inkscape (http://www.inkscape.org/) -->
<svg id="svg8" xmlns:rdf="http://www.w3.org/1999/02/22-rdf-syntax-ns#" xmlns="http://www.w3.org/2000/svg" xmlns:osb="http://www.openswatchbook.org/uri/2009/osb" height="48" width="48" version="1.1" xmlns:cc="http://creativecommons.org/ns#" viewBox="0 0 12.7 12.7" xmlns:dc="http://purl.org/dc/elements/1.1/">
 <title id="title4753">UIO-icon</title>
 <metadata id="metadata5">
  <rdf:RDF>
   <cc:Work rdf:about="">
    <dc:format>image/svg+xml</dc:format>
    <dc:type rdf:resource="http://purl.org/dc/dcmitype/StillImage"/>
    <dc:title>UIO-icon</dc:title>
    <dc:creator>
     <cc:Agent>
      <dc:title>Joaquín Urbano</dc:title>
     </cc:Agent>
    </dc:creator>
    <dc:rights>
     <cc:Agent>
      <dc:title>GPL</dc:title>
     </cc:Agent>
    </dc:rights>
   </cc:Work>
  </rdf:RDF>
 </metadata>
 <g id="layer1" fill="#333" transform="translate(0,-284.3)">
  <path id="rect4798" d="m24.029 4.9727c-1.4 0.0015-2.552 1.1015-2.619 2.5h-2.098c-0.589 0-1.062 0.4752-1.062 1.0644v0.2383h-6.389c-1.029 0-1.859 0.8278-1.859 1.8576v30.535c0 1.03 0.83 1.859 1.859 1.859h24.278c1.029 0 1.857-0.829 1.857-1.859v-25.232c-0.006 0.169-0.047 0.34-0.123 0.503l-7.682 16.514c-0.155 0.334-0.432 0.571-0.753 0.682-0.007 0.004-0.008 0.012-0.014 0.019l-3.36 3.627c-0.014 0.015-0.035 0.022-0.052 0.037-0.002 0.001-0.003 0.003-0.004 0.004-0.002 0.002-0.006 0.001-0.008 0.002-0.047 0.038-0.096 0.065-0.15 0.08-0.001 0.001-0.003 0.002-0.004 0.002-0.002 0.001-0.004 0.002-0.006 0.002-0.056 0.014-0.112 0.023-0.168 0.016-0.004-0.002-0.007 0-0.012 0-0.007 0-0.015-0.007-0.021-0.008-0.046-0.007-0.089-0.018-0.131-0.041-0.025-0.011-0.045-0.03-0.067-0.045-0.014-0.011-0.032-0.016-0.045-0.027-0.007-0.008-0.01-0.018-0.017-0.026-0.032-0.033-0.056-0.069-0.078-0.109-0.004-0.011-0.012-0.02-0.016-0.031-0.022-0.053-0.032-0.105-0.035-0.164-0.002-0.026-0.008-0.052-0.006-0.078l0.568-4.901c0.002-0.019 0.014-0.034 0.018-0.053-0.118-0.315-0.115-0.675 0.039-1.005l7.68-16.516c0.228-0.492 0.722-0.773 1.23-0.754 0.17 0.006 0.34 0.045 0.504 0.121l1.957 0.92c0.492 0.229 0.775 0.721 0.756 1.229v-5.303c0-1.0298-0.828-1.8576-1.857-1.8576h-6.391v-0.2383c0-0.5892-0.473-1.0644-1.062-1.0644h-2.038c-0.066-1.3985-1.219-2.4985-2.619-2.5zm-0.043 1.4511c0.648 0.0007 1.173 0.5262 1.172 1.1739 0.001 0.6477-0.524 1.1731-1.172 1.1738-0.648 0.0004-1.174-0.5254-1.174-1.1738 0-0.6485 0.526-1.1743 1.174-1.1739zm-4.33 1.7657h1.803c0.196 0.8351 0.782 1.4911 1.535 1.8105h-0.015a2.625 2.625 0 0 0 0.097 0.037c0.035 0.014 0.07 0.027 0.106 0.039a2.625 2.625 0 0 0 0.343 0.09c0.031 0.006 0.063 0.009 0.094 0.014a2.625 2.625 0 0 0 0.381 0.035h0.012a2.625 2.625 0 0 0 0.392 -0.035c0.031-0.005 0.062-0.008 0.092-0.014a2.625 2.625 0 0 0 0.328 -0.086c0.047-0.015 0.092-0.033 0.137-0.051a2.625 2.625 0 0 0 0.08 -0.029h-0.012c0.753-0.3194 1.34-0.9754 1.535-1.8105h1.747c0.354 0 0.64 0.2857 0.64 0.6406v1.1699 1.051h-9.935v-1.051-1.1699c0-0.3549 0.285-0.6406 0.64-0.6406zm-2.498 5.1935c0.36 0 0.647 0.29 0.647 0.65v1.719h1.718c0.36 0 0.651 0.29 0.651 0.65s-0.291 0.649-0.651 0.649h-1.718v1.719c0 0.36-0.289 0.65-0.649 0.65s-0.65-0.29-0.65-0.65v-1.719h-1.719c-0.36 0-0.65-0.288-0.65-0.649 0-0.36 0.29-0.65 0.65-0.65h1.721v-1.719c0-0.36 0.29-0.65 0.65-0.65zm17.938 1.084c-0.471-0.017-0.926 0.244-1.137 0.699l-0.605 1.303 3.08 1.431 0.605-1.302c0.282-0.607 0.02-1.322-0.586-1.604l-0.891-0.414c-0.151-0.071-0.31-0.106-0.466-0.113zm-1.998 2.549l-0.307 0.662 3.078 1.433 0.309-0.664-3.08-1.431zm-0.561 1.209l-2.088 4.486-3.594 7.728-0.298 0.643c-0.117 0.25-0.01 0.544 0.24 0.66l0.644 0.299 0.891 0.414 0.645 0.299c0.249 0.116 0.543 0.009 0.66-0.24l0.299-0.643 3.593-7.726 2.086-4.489-3.078-1.431zm-18.598 5.775h14.346l-0.67 1.375h-13.676v-1.375zm0 4h12.401l-0.67 1.375h-11.731v-1.375zm0 4h10.454l-0.668 1.375h-9.786v-1.375zm12.551 0.387l-0.531 3.99 2.654-2.986-2.123-1.004zm-12.551 3.613h8.508l-0.668 1.375h-7.84v-1.375z" fill-rule="evenodd" fill-opacity=".99505" transform="matrix(.26458 0 0 .26458 0 284.3)"/>
 </g>
</svg>
